X: 7
T: McKechnie's Farewell
R: march
M: 4/4
L: 1/8
K: Amaj
[M:4/4]AB|c2ce B2AB|cBce B2AB|c2ce agfe|effe f3g|
agfe fecB|cBce B2AB|cBce BAFE|EAAB A2AB|
cBce B2AB|c2ce B2AB|c2ce agfe|effe f3g|
a2 g/f/e fecB|cBce B2AB|cBce BAFE|EAAB A2||
|:ce|f2fe fage-|eeec ef c/B/A|B2BA BcAB|ceec efce|
f2fe fage-|eeec ef c/B/A|B2BA BcAF|EAAB A2:|

